svgs/sneakpeek.svg

<svg xmlns="http://www.w3.org/2000/svg" viewBox="0 0 192 192"><path d="M80.419 175.601c-39.021-3.293-57.33-19.72-63.105-56.616-1.757-11.224-1.751-34.776.011-46.129 4.931-31.77 20.633-49.279 49.015-54.655 15.496-2.935 43.864-2.935 59.36 0 28.564 5.411 43.997 22.806 49.096 55.336 1.605 10.24 1.605 34.526 0 44.766-5.403 34.472-21.027 50.94-53.239 56.116-8.859 1.424-30.805 2.054-41.138 1.182Zm29.727-22.764c36.386-9.123 55.005-49.47 38.347-83.094-7.09-14.31-19.779-25.064-35.376-29.98-8.164-2.574-22.332-2.966-30.803-.852-20.084 5.012-35.712 19.481-42.316 39.178-1.858 5.542-2.035 7.094-2.035 17.831 0 10.737.177 12.289 2.035 17.831 2.246 6.7 6.51 14.432 10.954 19.866 7.048 8.617 19.208 16.229 30.63 19.174 7.923 2.043 20.52 2.063 28.564.046Zm-20.029-27.329c-4.735-.994-11.957-5.086-15.092-8.552-1.502-1.66-3.789-5.276-5.082-8.035-2.059-4.393-2.349-5.821-2.334-11.475.021-7.193 1.282-11.172 5.386-16.986 8.851-12.539 27.251-15.299 40.068-6.011 7.451 5.399 11.341 13.303 11.367 23.097.016 6.05-.2 6.997-2.794 12.238-3.294 6.654-7.149 10.442-13.744 13.506-5.202 2.416-12.496 3.327-17.775 2.218Zm10.54-20.7c5.312-3.57 5.312-11.171 0-14.74-6.324-4.25-14.515-.091-14.515 7.37 0 7.477 8.177 11.629 14.515 7.37Z"/></svg>

<svg
    xmlns="http://www.w3.org/2000/svg"
    viewBox="0 0 192 192"
    id="vector">
    <path
        id="path"
        d="M 80.419 175.601 C 41.398 172.308 23.089 155.881 17.314 118.985 C 15.557 107.761 15.563 84.209 17.325 72.856 C 22.256 41.086 37.958 23.577 66.34 18.201 C 81.836 15.266 110.204 15.266 125.7 18.201 C 154.264 23.612 169.697 41.007 174.796 73.537 C 176.401 83.777 176.401 108.063 174.796 118.303 C 169.393 152.775 153.769 169.243 121.557 174.419 C 112.698 175.843 90.752 176.473 80.419 175.601 Z M 110.146 152.837 C 146.532 143.714 165.151 103.367 148.493 69.743 C 141.403 55.433 128.714 44.679 113.117 39.763 C 104.953 37.189 90.785 36.797 82.314 38.911 C 62.23 43.923 46.602 58.392 39.998 78.089 C 38.14 83.631 37.963 85.183 37.963 95.92 C 37.963 106.657 38.14 108.209 39.998 113.751 C 42.244 120.451 46.508 128.183 50.952 133.617 C 58 142.234 70.16 149.846 81.582 152.791 C 89.505 154.834 102.102 154.854 110.146 152.837 Z M 90.117 125.508 C 85.382 124.514 78.16 120.422 75.025 116.956 C 73.523 115.296 71.236 111.68 69.943 108.921 C 67.884 104.528 67.594 103.1 67.609 97.446 C 67.63 90.253 68.891 86.274 72.995 80.46 C 81.846 67.921 100.246 65.161 113.063 74.449 C 120.514 79.848 124.404 87.752 124.43 97.546 C 124.446 103.596 124.23 104.543 121.636 109.784 C 118.342 116.438 114.487 120.226 107.892 123.29 C 102.69 125.706 95.396 126.617 90.117 125.508 Z M 100.657 104.808 C 105.969 101.238 105.969 93.637 100.657 90.068 C 94.333 85.818 86.142 89.977 86.142 97.438 C 86.142 104.915 94.319 109.067 100.657 104.808 Z"
        fill="#000000"
        stroke-width="12"/>
</svg>
